24x24/apps/org.gna.Warmux.svg

<svg xmlns="http://www.w3.org/2000/svg" width="24" height="24" version="1">
 <rect style="fill:#ffd38d" width="1" height="4" x="15.86" y="-6.92" rx=".131" ry=".178" transform="rotate(30)"/>
 <path fill="#4f4f4f" d="m14.518 2.9068c-0.24-0.1385-0.5445-0.0569-0.683 0.183l-0.68 1.1773a9 9 0 0 0 -9.9493 4.233 9 9 0 0 0 3.294 12.294 9 9 0 0 0 12.294 -3.294 9 9 0 0 0 -1.31 -10.731l0.681-1.1794c0.138-0.2399 0.057-0.5445-0.183-0.683l-3.464-2z"/>
 <path opacity=".2" d="m18.16 5.5977-0.6755 1.1709a9 9 0 0 1 0.1735 0.1985l0.507-0.877c0.092-0.1593 0.079-0.3436-0.005-0.4923zm-16.148 7.5583a9 9 0 0 0 4.4873 8.138 9 9 0 0 0 12.294 -3.294 9 9 0 0 0 1.19 -4.653 9 9 0 0 1 -1.19 4.153 9 9 0 0 1 -12.294 3.294 9 9 0 0 1 -4.4878 -7.638z"/>
 <path fill="#fff" opacity=".1" d="m14.329 2.8428c-0.193-0.0242-0.39 0.0672-0.494 0.2471l-0.68 1.1768a9 9 0 0 0 -9.9493 4.2334 9 9 0 0 0 -1.1933 4.6559 9 9 0 0 1 1.1934 -4.1559 9 9 0 0 1 9.9492 -4.2334l0.679-1.1768c0.139-0.2399 0.443-0.3221 0.683-0.1836l3.465 2c0.0805 0.0466 0.135 0.11575 0.1775 0.19125l0.005-0.0075c0.138-0.2401 0.057-0.5453-0.183-0.6838l-3.463-2.0001c-0.06-0.0346-0.124-0.0554-0.189-0.0635zm3.329 4.1243-0.1735 0.3015a9 9 0 0 1 2.5 6.078 9 9 0 0 0 -2.3265 -6.3795z"/>
 <path style="opacity:0.2" d="m 10.458984,7.5004735 c -0.121532,-8.471e-4 -0.23132,0.00333 -0.328125,0.011719 -0.9109167,0.078574 -2.0983699,0.8652684 -3.1054684,2.0585937 -0.973501,1.1535218 -1.2551277,2.0752268 -0.8398437,2.7539078 0.4676748,0.764306 1.0085295,1.198934 1.7636719,1.417969 0.6460195,0.187378 0.8392055,0.301048 1.3925781,0.820312 0.8932281,0.838179 1.2020641,0.932469 3.0800781,0.9375 0.793275,0.0022 1.748559,-0.02861 2.123047,-0.06836 0.553689,-0.05877 0.786824,-0.128695 1.24414,-0.371094 1.21313,-0.643008 1.408084,-1.080075 1.050782,-2.339844 C 16.72841,12.328284 16.546243,11.497461 16.435547,10.875475 16.324851,10.253486 16.185334,9.6494078 16.125,9.5317235 15.856487,9.0079717 14.992502,8.5044983 13.503906,8.0024266 12.688089,7.7272679 11.309702,7.5063335 10.458984,7.5004735 Z m -0.3125,2 C 10.846259,9.5336165 11.003663,10.224336 11,10.814928 c 0,0.83397 -0.107381,1.155781 -0.490234,1.474609 -0.285947,0.23813 -0.9842608,0.287657 -1.1933598,0.08399 C 9.0979117,12.160693 9,11.762659 9,11.086413 9,10.067982 9.4095876,9.5007735 10.146484,9.5004735 Z m 3.388672,1.0000015 c 0.19464,-0.0027 0.40131,0.04647 0.650391,0.146484 0.257105,0.10324 0.544662,0.269015 0.640625,0.369141 0.228876,0.238808 0.231936,0.778504 0.0059,1.376953 -0.341179,0.903179 -1.02133,1.266933 -1.955078,1.044922 -0.359314,-0.08543 -0.783007,-0.492094 -0.859375,-0.824219 -0.123401,-0.536656 0.426256,-1.671135 0.94336,-1.949219 0.197548,-0.106234 0.379579,-0.161352 0.574218,-0.164062 z m -6.5703122,4 c -0.2522933,-0.0016 -0.5197436,0.0915 -0.7773438,0.28125 -0.3157198,0.232561 -0.9320483,1.041638 -1.0957031,1.439453 -0.3096905,0.752802 0.204804,1.914295 0.9765625,2.205078 0.2714705,0.102284 0.2757358,0.102321 0.5214844,-0.0293 0.2921603,-0.156485 0.434774,-0.36625 0.9414062,-1.384765 0.3422434,-0.688031 0.4342693,-0.946714 0.4589844,-1.296875 0.027963,-0.396162 0.00883,-0.466133 -0.1894532,-0.75 C 7.5866444,14.658741 7.2892207,14.502468 6.9648438,14.500475 Z m 2.8632812,2 c -0.7279588,0 -1.2471299,0.489048 -1.5839844,1.490234 -0.2919593,0.867767 -0.3235649,1.603332 -0.082031,1.861328 0.420714,0.449388 1.9776924,0.813105 2.4531244,0.572266 0.198469,-0.100541 0.261178,-0.249963 0.355469,-0.859375 0.09025,-0.583353 -0.03579,-1.885831 -0.230469,-2.388672 -0.173611,-0.448391 -0.478941,-0.675781 -0.912109,-0.675781 z m 3.664063,0 c -0.06528,-5e-4 -0.142013,0.0029 -0.232422,0.0098 -0.539347,0.04117 -0.829561,0.225023 -1.089844,0.6875 -0.173527,0.308314 -0.190056,0.420167 -0.154297,1.044922 0.04462,0.779309 0.164609,1.180347 0.375,1.238281 0.225982,0.06222 1.241686,-0.03106 1.6875,-0.154297 C 14.626354,19.17512 15,18.87864 15,18.594225 15,18.290574 14.210201,16.847727 13.931641,16.643053 13.791965,16.54039 13.688016,16.502127 13.492188,16.500475 Z"/>
 <path style="fill:#cbcbcb" d="M 10.458984 7 C 10.337452 6.9991529 10.227664 7.0033288 10.130859 7.0117188 C 9.2199423 7.0902927 8.0324891 7.8769872 7.0253906 9.0703125 C 6.0518896 10.223833 5.7702629 11.145538 6.1855469 11.824219 C 6.6532217 12.588525 7.1940764 13.023153 7.9492188 13.242188 C 8.5952383 13.429566 8.7884243 13.543236 9.3417969 14.0625 C 10.235025 14.900679 10.543861 14.994969 12.421875 15 C 13.21515 15.0022 14.170434 14.971391 14.544922 14.931641 C 15.098611 14.872871 15.331746 14.802946 15.789062 14.560547 C 17.002192 13.917539 17.197146 13.480472 16.839844 12.220703 C 16.72841 11.827809 16.546243 10.996986 16.435547 10.375 C 16.324851 9.7530124 16.185334 9.1489343 16.125 9.03125 C 15.856487 8.5074982 14.992502 8.0040248 13.503906 7.5019531 C 12.688089 7.2267944 11.309702 7.00586 10.458984 7 z M 10.146484 9 C 10.846259 9.033143 11.003663 9.7238623 11 10.314453 C 11 11.148423 10.892619 11.470234 10.509766 11.789062 C 10.223819 12.027192 9.5255052 12.076719 9.3164062 11.873047 C 9.0979117 11.660218 9 11.262184 9 10.585938 C 9 9.5675089 9.4095876 9.0003 10.146484 9 z M 13.535156 10 C 13.729796 9.99734 13.936466 10.046466 14.185547 10.146484 C 14.442652 10.249724 14.730209 10.415499 14.826172 10.515625 C 15.055048 10.754433 15.058108 11.294129 14.832031 11.892578 C 14.490852 12.795757 13.810701 13.159511 12.876953 12.9375 C 12.517639 12.85207 12.093946 12.445406 12.017578 12.113281 C 11.894177 11.576625 12.443834 10.442146 12.960938 10.164062 C 13.158486 10.057828 13.340517 10.00271 13.535156 10 z M 6.9648438 14 C 6.7125505 13.9984 6.4451002 14.091502 6.1875 14.28125 C 5.8717802 14.513811 5.2554517 15.322888 5.0917969 15.720703 C 4.7821064 16.473505 5.2966009 17.634998 6.0683594 17.925781 C 6.3398299 18.028065 6.3440952 18.028102 6.5898438 17.896484 C 6.8820041 17.739999 7.0246178 17.530234 7.53125 16.511719 C 7.8734934 15.823688 7.9655193 15.565005 7.9902344 15.214844 C 8.0181978 14.818682 7.9990634 14.748711 7.8007812 14.464844 C 7.5866444 14.158266 7.2892207 14.001993 6.9648438 14 z M 9.828125 16 C 9.1001662 16 8.5809951 16.489048 8.2441406 17.490234 C 7.9521813 18.358001 7.9205757 19.093566 8.1621094 19.351562 C 8.5828234 19.80095 10.139802 20.164667 10.615234 19.923828 C 10.813703 19.823287 10.876412 19.673865 10.970703 19.064453 C 11.060953 18.4811 10.934918 17.178622 10.740234 16.675781 C 10.566623 16.22739 10.261293 16 9.828125 16 z M 13.492188 16 C 13.426908 15.9995 13.350175 16.002866 13.259766 16.009766 C 12.720419 16.050936 12.430205 16.234789 12.169922 16.697266 C 11.996395 17.00558 11.979866 17.117433 12.015625 17.742188 C 12.060245 18.521497 12.180234 18.922535 12.390625 18.980469 C 12.616607 19.042689 13.632311 18.949406 14.078125 18.826172 C 14.626354 18.674645 15 18.378165 15 18.09375 C 15 17.790099 14.210201 16.347252 13.931641 16.142578 C 13.791965 16.039915 13.688016 16.001652 13.492188 16 z"/>
 <path style="fill:#f4f4f7;opacity:0.2" d="M 10.458984 7 C 10.337452 6.9991529 10.227664 7.0033288 10.130859 7.0117188 C 9.2199427 7.0902927 8.0324891 7.8769872 7.0253906 9.0703125 C 6.245958 9.9938775 5.9171549 10.766112 6.0273438 11.386719 C 6.1136178 10.865134 6.4432817 10.260066 7.0253906 9.5703125 C 8.0324891 8.3769872 9.2199427 7.5902927 10.130859 7.5117188 C 10.227664 7.5033297 10.337452 7.4991529 10.458984 7.5 C 11.309702 7.50586 12.688089 7.7267944 13.503906 8.0019531 C 14.992502 8.5040248 15.856487 9.0074982 16.125 9.53125 C 16.185334 9.6489343 16.324851 10.253011 16.435547 10.875 C 16.546243 11.496986 16.72841 12.32781 16.839844 12.720703 C 16.914469 12.983815 16.948503 13.193823 16.970703 13.394531 C 17.032162 13.089327 16.981728 12.720956 16.839844 12.220703 C 16.72841 11.827809 16.546243 10.996986 16.435547 10.375 C 16.324851 9.7530124 16.185334 9.1489343 16.125 9.03125 C 15.856487 8.5074982 14.992502 8.0040248 13.503906 7.5019531 C 12.688089 7.2267944 11.309702 7.00586 10.458984 7 z M 10.986328 10.628906 C 10.956422 11.222146 10.836583 11.516899 10.509766 11.789062 C 10.223819 12.027192 9.5255052 12.076719 9.3164062 11.873047 C 9.1345002 11.695858 9.0532207 11.346976 9.0253906 10.859375 C 9.0197175 10.938116 9 11.000827 9 11.085938 C 9 11.762184 9.0979117 12.160213 9.3164062 12.373047 C 9.5255053 12.576714 10.223819 12.527192 10.509766 12.289062 C 10.892619 11.970234 11 11.648423 11 10.814453 C 11.000378 10.753469 10.989804 10.691191 10.986328 10.628906 z M 14.970703 11.355469 C 14.944939 11.525343 14.903541 11.703285 14.832031 11.892578 C 14.490852 12.795757 13.810701 13.159511 12.876953 12.9375 C 12.531832 12.855444 12.134246 12.478366 12.035156 12.154297 C 11.999244 12.326975 11.988664 12.487538 12.017578 12.613281 C 12.093946 12.945406 12.517639 13.35207 12.876953 13.4375 C 13.810701 13.659511 14.490852 13.295757 14.832031 12.392578 C 14.982706 11.993653 15.022655 11.630458 14.970703 11.355469 z M 6.9648438 14 C 6.7125505 13.9984 6.4451002 14.091502 6.1875 14.28125 C 5.8717802 14.513811 5.2554517 15.322888 5.0917969 15.720703 C 4.9994768 15.945117 4.9881979 16.205592 5.0273438 16.46875 C 5.0423646 16.383306 5.0596765 16.298782 5.0917969 16.220703 C 5.2554517 15.822888 5.8717802 15.013811 6.1875 14.78125 C 6.4451002 14.5915 6.7125505 14.4984 6.9648438 14.5 C 7.2892207 14.501993 7.5866444 14.658269 7.8007812 14.964844 C 7.8964994 15.101876 7.9475317 15.189011 7.9746094 15.287109 C 7.9770308 15.26354 7.9885209 15.239119 7.9902344 15.214844 C 8.0181978 14.818682 7.9990635 14.748711 7.8007812 14.464844 C 7.5866444 14.158266 7.2892207 14.001993 6.9648438 14 z M 9.828125 16 C 9.1001662 16 8.5809951 16.489048 8.2441406 17.490234 C 8.0406443 18.09507 7.9715916 18.624936 8.0253906 18.984375 C 8.0547493 18.690751 8.1206368 18.357315 8.2441406 17.990234 C 8.5809951 16.989048 9.1001662 16.5 9.828125 16.5 C 10.261293 16.5 10.566623 16.72739 10.740234 17.175781 C 10.868519 17.507132 10.959901 18.178309 10.986328 18.769531 C 11.016456 18.121015 10.908765 17.111071 10.740234 16.675781 C 10.566623 16.22739 10.261293 16 9.828125 16 z M 13.492188 16 C 13.426907 15.9995 13.350175 16.002866 13.259766 16.009766 C 12.720419 16.050936 12.430205 16.234789 12.169922 16.697266 C 12.015969 16.970801 11.995548 17.138029 12.015625 17.597656 C 12.037285 17.455287 12.084029 17.349876 12.169922 17.197266 C 12.430205 16.734789 12.720419 16.550936 13.259766 16.509766 C 13.350175 16.502866 13.426908 16.4995 13.492188 16.5 C 13.688016 16.501652 13.791965 16.539915 13.931641 16.642578 C 14.164112 16.813388 14.727631 17.812477 14.916016 18.326172 C 14.967896 18.249753 15 18.171579 15 18.09375 C 15 17.790099 14.210201 16.347252 13.931641 16.142578 C 13.791965 16.039915 13.688015 16.001652 13.492188 16 z"/>
</svg>

<svg xmlns="http://www.w3.org/2000/svg" width="24" height="24" version="1"><rect style="fill:#ffd38d" width="1" height="4" x="15.86" y="-6.92" rx=".131" ry=".178" transform="rotate(30)"/><path fill="#4f4f4f" d="M14.518 2.907a.499.499 0 0 0-.683.183l-.68 1.177A9 9 0 0 0 3.205 8.5 9 9 0 0 0 6.5 20.794 9 9 0 0 0 18.794 17.5a9 9 0 0 0-1.31-10.73l.68-1.18a.5.5 0 0 0-.182-.683l-3.464-2z"/><path opacity=".2" d="m18.16 5.598-.675 1.17a9 9 0 0 1 .173.2l.507-.878a.492.492 0 0 0-.005-.492zM2.012 13.156a9 9 0 0 0 4.487 8.138A9 9 0 0 0 18.793 18a9 9 0 0 0 1.19-4.653 9 9 0 0 1-1.19 4.153A9 9 0 0 1 6.5 20.794a9 9 0 0 1-4.487-7.638z"/><path fill="#fff" opacity=".1" d="M14.329 2.843a.499.499 0 0 0-.494.247l-.68 1.177A9 9 0 0 0 3.205 8.5a9 9 0 0 0-1.193 4.656A9 9 0 0 1 3.206 9a9 9 0 0 1 9.949-4.233l.679-1.177a.5.5 0 0 1 .683-.184l3.465 2c.08.047.135.116.177.192l.005-.008a.5.5 0 0 0-.183-.684l-3.463-2a.501.501 0 0 0-.189-.063zm3.329 4.124-.173.302a9 9 0 0 1 2.5 6.078 9 9 0 0 0-2.327-6.38z"/><path style="opacity:.2" d="M10.459 7.5c-.122 0-.231.004-.328.012-.911.079-2.099.865-3.106 2.059-.973 1.153-1.255 2.075-.84 2.754.468.764 1.01 1.199 1.764 1.418.646.187.84.3 1.393.82.893.838 1.202.932 3.08.937.793.003 1.748-.028 2.123-.068.554-.059.787-.129 1.244-.371 1.213-.643 1.408-1.08 1.05-2.34a23.745 23.745 0 0 1-.403-1.846c-.111-.622-.25-1.226-.311-1.343-.269-.524-1.132-1.028-2.621-1.53-.816-.275-2.194-.496-3.045-.502zm-.313 2c.7.034.858.724.854 1.315 0 .834-.107 1.156-.49 1.475-.286.238-.984.287-1.194.084C9.098 12.16 9 11.763 9 11.086c0-1.018.41-1.585 1.146-1.586zm3.39 1c.194-.002.4.047.65.147.257.103.544.269.64.37.229.238.232.778.006 1.376-.341.903-1.021 1.267-1.955 1.045-.36-.085-.783-.492-.86-.824-.123-.537.427-1.671.944-1.95a1.22 1.22 0 0 1 .574-.164zm-6.571 4c-.252-.001-.52.092-.778.282-.315.232-.932 1.041-1.095 1.44-.31.752.205 1.913.976 2.204.272.103.276.103.522-.029.292-.157.435-.366.941-1.385.342-.688.435-.947.46-1.297.027-.396.008-.466-.19-.75-.214-.306-.512-.463-.836-.465zm2.863 2c-.728 0-1.247.49-1.584 1.49-.292.868-.323 1.604-.082 1.862.42.45 1.978.813 2.453.572.199-.1.261-.25.356-.86.09-.582-.036-1.885-.23-2.388-.174-.448-.48-.676-.913-.676zm3.664 0a2.83 2.83 0 0 0-.232.01c-.54.041-.83.225-1.09.688-.174.308-.19.42-.154 1.045.044.779.164 1.18.375 1.238.226.062 1.241-.031 1.687-.154.548-.152.922-.448.922-.733 0-.303-.79-1.746-1.068-1.95a.648.648 0 0 0-.44-.144z"/><path style="fill:#cbcbcb" d="M10.459 7c-.122 0-.231.003-.328.012-.911.078-2.099.865-3.106 2.058-.973 1.154-1.255 2.076-.84 2.754.468.765 1.01 1.2 1.764 1.418.646.188.84.301 1.393.82.893.839 1.202.933 3.08.938.793.002 1.748-.029 2.123-.068.554-.06.787-.13 1.244-.371 1.213-.643 1.408-1.08 1.05-2.34a23.746 23.746 0 0 1-.403-1.846c-.111-.622-.25-1.226-.311-1.344-.269-.524-1.132-1.027-2.621-1.529-.816-.275-2.194-.496-3.045-.502zm-.313 2c.7.033.858.724.854 1.314 0 .834-.107 1.156-.49 1.475-.286.238-.984.288-1.194.084-.218-.213-.316-.61-.316-1.287C9 9.568 9.41 9 10.146 9zm3.39 1c.194-.003.4.046.65.146.257.104.544.27.64.37.229.238.232.778.006 1.377-.341.903-1.021 1.267-1.955 1.044-.36-.085-.783-.492-.86-.824-.123-.536.427-1.67.944-1.949a1.22 1.22 0 0 1 .574-.164zm-6.571 4c-.252-.002-.52.092-.777.281-.316.233-.933 1.042-1.096 1.44-.31.753.205 1.914.976 2.205.272.102.276.102.522-.03.292-.156.435-.366.941-1.384.342-.688.435-.947.46-1.297.027-.396.008-.466-.19-.75-.214-.307-.512-.463-.836-.465zm2.863 2c-.728 0-1.247.489-1.584 1.49-.292.868-.323 1.604-.082 1.862.42.449 1.978.813 2.453.572.199-.1.261-.25.356-.86.09-.583-.036-1.885-.23-2.388-.174-.449-.48-.676-.913-.676zm3.664 0c-.065 0-.142.003-.232.01-.54.04-.83.225-1.09.687-.174.309-.19.42-.154 1.045.044.78.164 1.18.375 1.238.226.063 1.241-.03 1.687-.154.548-.151.922-.448.922-.732 0-.304-.79-1.747-1.068-1.951a.648.648 0 0 0-.44-.143z"/><path style="fill:#f4f4f7;opacity:.2" d="M10.459 7c-.122 0-.231.003-.328.012-.911.078-2.099.865-3.106 2.058-.779.924-1.108 1.696-.998 2.317.087-.522.416-1.127.998-1.817 1.007-1.193 2.195-1.98 3.106-2.058.097-.009.206-.013.328-.012.85.006 2.23.227 3.045.502 1.489.502 2.352 1.005 2.621 1.53.06.117.2.721.31 1.343.111.622.293 1.453.405 1.846.074.263.109.473.13.674.062-.306.012-.674-.13-1.174a23.746 23.746 0 0 1-.404-1.846c-.111-.622-.25-1.226-.311-1.344-.269-.524-1.132-1.027-2.621-1.529-.816-.275-2.194-.496-3.045-.502zm.527 3.629c-.03.593-.15.888-.476 1.16-.286.238-.984.288-1.194.084-.181-.177-.263-.526-.29-1.014-.006.08-.026.142-.026.227 0 .676.098 1.074.316 1.287.21.204.908.154 1.194-.084.383-.319.49-.64.49-1.475 0-.06-.01-.123-.014-.185zm3.985.726c-.026.17-.067.348-.139.538-.341.903-1.021 1.267-1.955 1.044-.345-.082-.743-.459-.842-.783a1.121 1.121 0 0 0-.017.46c.076.331.5.738.859.823.934.223 1.614-.141 1.955-1.044.15-.4.19-.763.139-1.038zM6.965 14c-.252-.002-.52.092-.777.281-.316.233-.933 1.042-1.096 1.44-.093.224-.104.485-.065.748.015-.086.033-.17.065-.248.163-.398.78-1.207 1.096-1.44.257-.19.525-.283.777-.281.324.002.622.158.836.465.095.137.147.224.174.322.002-.023.014-.048.015-.072.028-.396.01-.466-.19-.75-.213-.307-.51-.463-.835-.465zm2.863 2c-.728 0-1.247.489-1.584 1.49-.203.605-.272 1.135-.219 1.494.03-.293.096-.627.22-.994.336-1.001.855-1.49 1.583-1.49.433 0 .739.227.912.676.129.331.22 1.002.246 1.594.03-.649-.077-1.659-.246-2.094-.173-.449-.479-.676-.912-.676zm3.664 0c-.065 0-.142.003-.232.01-.54.04-.83.225-1.09.687-.154.274-.174.441-.154.9.021-.142.068-.247.154-.4.26-.462.55-.646 1.09-.687.09-.007.167-.01.232-.01.196.002.3.04.44.143.232.17.796 1.17.984 1.683a.421.421 0 0 0 .084-.232c0-.304-.79-1.747-1.068-1.951a.648.648 0 0 0-.44-.143z"/></svg>
